X: 30544
T: On The River Bank
R: reel
M: 4/4
K: Dmajor
dcAF G3F|DEFG AB=cA|d^cAF G2 AG|FD D2 ADFA|
dcAF G3F|DEFG AB=cA|d^cAF G2 FG|Aceg fd d2||
Addc d2 cd|ed (3Bcd efge|fgef d2 dc|AGFG ABcB|
Addc d2 (3Bcd|ed (3Bcd efge|faef d2 dc|Aceg fdd2||

